src/images/instagram.svg

<svg height="512pt" viewBox="0 0 512 512" width="512pt" xmlns="http://www.w3.org/2000/svg"><path d="m305 256c0 27.0625-21.9375 49-49 49s-49-21.9375-49-49 21.9375-49 49-49 49 21.9375 49 49zm0 0"/><path d="m370.59375 169.304688c-2.355469-6.382813-6.113281-12.160157-10.996094-16.902344-4.742187-4.882813-10.515625-8.640625-16.902344-10.996094-5.179687-2.011719-12.960937-4.40625-27.292968-5.058594-15.503906-.707031-20.152344-.859375-59.402344-.859375-39.253906 0-43.902344.148438-59.402344.855469-14.332031.65625-22.117187 3.050781-27.292968 5.0625-6.386719 2.355469-12.164063 6.113281-16.902344 10.996094-4.882813 4.742187-8.640625 10.515625-11 16.902344-2.011719 5.179687-4.40625 12.964843-5.058594 27.296874-.707031 15.5-.859375 20.148438-.859375 59.402344 0 39.25.152344 43.898438.859375 59.402344.652344 14.332031 3.046875 22.113281 5.058594 27.292969 2.359375 6.386719 6.113281 12.160156 10.996094 16.902343 4.742187 4.882813 10.515624 8.640626 16.902343 10.996094 5.179688 2.015625 12.964844 4.410156 27.296875 5.0625 15.5.707032 20.144532.855469 59.398438.855469 39.257812 0 43.90625-.148437 59.402344-.855469 14.332031-.652344 22.117187-3.046875 27.296874-5.0625 12.820313-4.945312 22.953126-15.078125 27.898438-27.898437 2.011719-5.179688 4.40625-12.960938 5.0625-27.292969.707031-15.503906.855469-20.152344.855469-59.402344 0-39.253906-.148438-43.902344-.855469-59.402344-.652344-14.332031-3.046875-22.117187-5.0625-27.296874zm-114.59375 162.179687c-41.691406 0-75.488281-33.792969-75.488281-75.484375s33.796875-75.484375 75.488281-75.484375c41.6875 0 75.484375 33.792969 75.484375 75.484375s-33.796875 75.484375-75.484375 75.484375zm78.46875-136.3125c-9.742188 0-17.640625-7.898437-17.640625-17.640625s7.898437-17.640625 17.640625-17.640625 17.640625 7.898437 17.640625 17.640625c-.003906 9.742188-7.898437 17.640625-17.640625 17.640625zm0 0"/><path d="m256 0c-141.363281 0-256 114.636719-256 256s114.636719 256 256 256 256-114.636719 256-256-114.636719-256-256-256zm146.113281 316.605469c-.710937 15.648437-3.199219 26.332031-6.832031 35.683593-7.636719 19.746094-23.246094 35.355469-42.992188 42.992188-9.347656 3.632812-20.035156 6.117188-35.679687 6.832031-15.675781.714844-20.683594.886719-60.605469.886719-39.925781 0-44.929687-.171875-60.609375-.886719-15.644531-.714843-26.332031-3.199219-35.679687-6.832031-9.8125-3.691406-18.695313-9.476562-26.039063-16.957031-7.476562-7.339844-13.261719-16.226563-16.953125-26.035157-3.632812-9.347656-6.121094-20.035156-6.832031-35.679687-.722656-15.679687-.890625-20.6875-.890625-60.609375s.167969-44.929688.886719-60.605469c.710937-15.648437 3.195312-26.332031 6.828125-35.683593 3.691406-9.808594 9.480468-18.695313 16.960937-26.035157 7.339844-7.480469 16.226563-13.265625 26.035157-16.957031 9.351562-3.632812 20.035156-6.117188 35.683593-6.832031 15.675781-.714844 20.683594-.886719 60.605469-.886719s44.929688.171875 60.605469.890625c15.648437.710937 26.332031 3.195313 35.683593 6.824219 9.808594 3.691406 18.695313 9.480468 26.039063 16.960937 7.476563 7.34375 13.265625 16.226563 16.953125 26.035157 3.636719 9.351562 6.121094 20.035156 6.835938 35.683593.714843 15.675781.882812 20.683594.882812 60.605469s-.167969 44.929688-.886719 60.605469zm0 0"/></svg>

<svg width="512" height="512" viewBox="0 0 512 512" fill="none" xmlns="http://www.w3.org/2000/svg">
<path d="M305 256C305 283.062 283.062 305 256 305C228.938 305 207 283.062 207 256C207 228.938 228.938 207 256 207C283.062 207 305 228.938 305 256Z" fill="#100F0F" fill-opacity="0.81"/>
<path d="M370.594 169.305C368.238 162.922 364.48 157.145 359.598 152.402C354.855 147.52 349.082 143.762 342.695 141.406C337.516 139.395 329.734 137 315.402 136.348C299.898 135.641 295.25 135.488 256 135.488C216.746 135.488 212.098 135.637 196.598 136.344C182.266 137 174.48 139.395 169.305 141.406C162.918 143.762 157.141 147.52 152.402 152.402C147.52 157.145 143.762 162.918 141.402 169.305C139.391 174.484 136.996 182.27 136.344 196.602C135.637 212.102 135.484 216.75 135.484 256.004C135.484 295.254 135.637 299.902 136.344 315.406C136.996 329.738 139.391 337.52 141.402 342.699C143.762 349.086 147.516 354.859 152.398 359.602C157.141 364.484 162.914 368.242 169.301 370.598C174.48 372.613 182.266 375.008 196.598 375.66C212.098 376.367 216.742 376.516 255.996 376.516C295.254 376.516 299.902 376.367 315.398 375.66C329.73 375.008 337.516 372.613 342.695 370.598C355.516 365.652 365.648 355.52 370.594 342.699C372.605 337.52 375 329.738 375.656 315.406C376.363 299.902 376.512 295.254 376.512 256.004C376.512 216.75 376.363 212.102 375.656 196.602C375.004 182.27 372.609 174.484 370.594 169.305V169.305ZM256 331.484C214.309 331.484 180.512 297.691 180.512 256C180.512 214.309 214.309 180.516 256 180.516C297.688 180.516 331.484 214.309 331.484 256C331.484 297.691 297.688 331.484 256 331.484ZM334.469 195.172C324.727 195.172 316.828 187.273 316.828 177.531C316.828 167.789 324.727 159.891 334.469 159.891C344.211 159.891 352.109 167.789 352.109 177.531C352.105 187.273 344.211 195.172 334.469 195.172Z" fill="#100F0F" fill-opacity="0.81"/>
<path d="M256 0C114.637 0 0 114.637 0 256C0 397.363 114.637 512 256 512C397.363 512 512 397.363 512 256C512 114.637 397.363 0 256 0ZM402.113 316.605C401.402 332.254 398.914 342.938 395.281 352.289C387.645 372.035 372.035 387.645 352.289 395.281C342.941 398.914 332.254 401.398 316.609 402.113C300.934 402.828 295.926 403 256.004 403C216.078 403 211.074 402.828 195.395 402.113C179.75 401.398 169.062 398.914 159.715 395.281C149.902 391.59 141.02 385.805 133.676 378.324C126.199 370.984 120.414 362.098 116.723 352.289C113.09 342.941 110.602 332.254 109.891 316.609C109.168 300.93 109 295.922 109 256C109 216.078 109.168 211.07 109.887 195.395C110.598 179.746 113.082 169.062 116.715 159.711C120.406 149.902 126.195 141.016 133.676 133.676C141.016 126.195 149.902 120.41 159.711 116.719C169.062 113.086 179.746 110.602 195.395 109.887C211.07 109.172 216.078 109 256 109C295.922 109 300.93 109.172 316.605 109.891C332.254 110.602 342.938 113.086 352.289 116.715C362.098 120.406 370.984 126.195 378.328 133.676C385.805 141.02 391.594 149.902 395.281 159.711C398.918 169.062 401.402 179.746 402.117 195.395C402.832 211.07 403 216.078 403 256C403 295.922 402.832 300.93 402.113 316.605V316.605Z" fill="#100F0F" fill-opacity="0.81"/>
</svg>
